packages/icons/src/power.svg

<svg width="24" height="24" viewBox="0 0 24 24" fill="none" xmlns="http://www.w3.org/2000/svg">
<path fill-rule="evenodd" clip-rule="evenodd" d="M12.9991 2V13.0009H10.9991V2H12.9991Z" fill="black"/>
<path fill-rule="evenodd" clip-rule="evenodd" d="M7.04986 5.63907L6.34275 6.34617C3.21933 9.4696 3.21933 14.534 6.34275 17.6574C9.46618 20.7809 14.5306 20.7809 17.654 17.6574C20.7774 14.534 20.7774 9.4696 17.654 6.34617L16.9469 5.63907L18.3611 4.22485L19.0682 4.93196C22.9727 8.83644 22.9727 15.1672 19.0682 19.0716C15.1637 22.9761 8.83301 22.9761 4.92854 19.0716C1.02406 15.1672 1.02406 8.83644 4.92854 4.93196L5.63565 4.22485L7.04986 5.63907Z" fill="black"/>
</svg>

<svg xmlns="http://www.w3.org/2000/svg" width="24" height="24" fill="none" viewBox="0 0 24 24">
  <path fill="#000" fill-rule="evenodd" d="M13 2v11h-2V2h2Z" clip-rule="evenodd"/>
  <path fill="#000" fill-rule="evenodd" d="m7.05 5.64-.707.706a7.998 7.998 0 1 0 11.311 0l-.707-.707 1.414-1.414.707.707c3.905 3.904 3.905 10.235 0 14.14-3.904 3.904-10.235 3.904-14.14 0-3.904-3.905-3.904-10.236 0-14.14l.708-.707L7.05 5.639Z" clip-rule="evenodd"/>
</svg>
